icons/sailboat-line.svg

<svg viewBox="0 0 24 24" fill="currentColor" xmlns="http://www.w3.org/2000/svg">
    <path d="M3.00003 18H21C21.2762 18 21.5 18.2239 21.5 18.5C21.5 18.6082 21.4649 18.7135 21.4 18.8L19.3 21.6C19.1112 21.8518 18.8148 22 18.5 22H5.50003C5.18527 22 4.88888 21.8518 4.70003 21.6L2.60003 18.8C2.43434 18.5791 2.47912 18.2657 2.70003 18.1C2.78658 18.0351 2.89184 18 3.00003 18ZM7.16128 14H13V6.7016L7.16128 14ZM15 2.42543V15C15 15.5523 14.5523 16 14 16H4.04034C3.7642 16 3.54034 15.7762 3.54034 15.5C3.54034 15.3865 3.57898 15.2764 3.64991 15.1877L14.1096 2.11309C14.2821 1.89745 14.5967 1.86249 14.8124 2.035C14.931 2.12989 15 2.27354 15 2.42543Z"/>
</svg>

<svg xmlns="http://www.w3.org/2000/svg" viewBox="0 0 24 24">
    <g>
        <path fill="none" d="M0 0h24v24H0z"/>
        <path d="M3 18h18a.5.5 0 0 1 .4.8l-2.1 2.8a1 1 0 0 1-.8.4h-13a1 1 0 0 1-.8-.4l-2.1-2.8A.5.5 0 0 1 3 18zm4.161-4H13V6.702L7.161 14zM15 2.425V15a1 1 0 0 1-1 1H4.04a.5.5 0 0 1-.39-.812L14.11 2.113a.5.5 0 0 1 .89.312z"/>
    </g>
</svg>
